X: 631
T:O'Carolan's Devotion
M:3/4
L:1/8
B:O'Neill's 631
N:"Animated." "2nd Setting"
Z:Transcribed by Ted Hastings, ted@hastings.nu
K:Gm
ga|\
L:1/16
b4 b/2a/2f3 f/2g/2a3|\
L:1/8
gf2 de f2|dcBA ~GF|F4 GA|
L:1/16
B4 B/2c/2d3 d/2c/2B3|\
L:1/8
c2 dfgd|.c.B.A.G .G-.G|G4||
~GF|D2 F2 .F2|FG FE~DC|D2 G2 G2|GA GF ~ED|
D2 B2 .B2|BcBAGA|F2 f2 .f2|f4 ga|
b2 baGa|b2 d2 .d2|dc Bcde|f2 A2 .A2|
BA GABc|d2 A2 AG|GF ~EDDF|D4 de|
L:1/16
f4 f/2g/2a3 f/2g/2a3|\
L:1/8
g z g2 fd|cABA ~GF|F4 GA|
L:1/16
B4 B/2c/2d3 d/2c/2B3|\
L:1/8
c2 dfgd|.c.B.A.G .G-.G|G4||
